X: 1
T: String Quartet in E\b Major opus 71 no 3 mvt 1
C: Franz Joseph Haydn
%%abc-version 2.0
%%abcx-abcm2ps-target-version 5.9.1 (29 Sep 2008)
%%abc-creator hum2abc beta
%%abcx-conversion-date 2021/02/14 14:38:18
%%abc-copyright Copyright (c) 1994, 2000 Center for Computer Assisted Research in the Humanities
%%abc-edited-by Frances Bennion
%%abcx-initial-encoding-date 1997/04/15
%%gracespace 0 6 6
%%humdrum-veritas 1281145525
%%humdrum-veritas-data 1144083153
%%linebreak <none>
%%barnumbers 0
L: 1/8
M: 2/4
N: Derived from op71n3-01.krn
Q: "Vivace"
%%staves [1 2 3 4]
V: 1
V: 2
V: 3 clef=alto
V: 4 clef=bass
K: Eb
[V:1][E2G,2B2g2] z2 [I:setbarnb2] |
[V:2][G,2E2e2] z2 |
[V:3][E2G,2] z2 |
[V:4][E,,2G,,2E,2] z2 |
[V:1]z4 |
[V:2]z4 |
[V:3]z4 |
[V:4]z4 |
[V:1]B4 |
[V:2]G4 |
[V:3]z4 |
[V:4]E,,G,, B,,E, |
[V:1]G2 c2 |
[V:2]E4 |
[V:3]z4 |
[V:4]G,C =A,F, |
[V:1]FB =A/B/c/A/ |
[V:2]DD EE |
[V:3]z4 |
[V:4]B,B, F,F, |
[V:1]BB Bz |
[V:2]DD Dz |
[V:3]z4 |
[V:4]B,B, B,z |
[V:1]FF Fz |
[V:2]FF Fz |
[V:3]FF Fz |
[V:4]F,F, F,z |
[V:1]B,B, B,z |
[V:2]B,B, B,z |
[V:3]B,B, B,z |
[V:4]B,,B,, B,,z |
[V:1]c4 |
[V:2]A4 |
[V:3]z4 |
[V:4]F,,A,, C,F, |
[V:1]F2 B2 |
[V:2]D2 _D2 |
[V:3]z4 |
[V:4]B,A, G,E, |
[V:1]AG/F/ E/D/F/D/ |
[V:2]C2 B,A, |
[V:3]z4 |
[V:4]A,A,, B,,B,, |
[V:1]EE Ez |
[V:2]G,G, G,z |
[V:3]z4 |
[V:4]E,E, E,z |
[V:1]B,B, B,z |
[V:2]B,B, B,z |
[V:3]B,B, B,z |
[V:4]B,,B,, B,,z |
[V:1]G,G, G,z |
[V:2]G,G, G,z |
[V:3]G,G, G,z |
[V:4]G,,G,, G,,z |
[V:1]b4 |
[V:2]g4 |
[V:3]E,G, B,E |
[V:4]z4 |
[V:1]g2 c'2 |
[V:2]e4 |
[V:3]Gc =AF |
[V:4]z4 |
[V:1]fb =a/b/c'/a/ |
[V:2]dd ee |
[V:3]BB FF |
[V:4]z4 |
[V:1]bb bz |
[V:2]dd dz |
[V:3]BB Bz |
[V:4]z4 |
[V:1]FF Fz |
[V:2]FF Fz |
[V:3]FF Fz |
[V:4]F,F, F,z |
[V:1]B,B, B,z |
[V:2]B,B, B,z |
[V:3]B,B, B,z |
[V:4]B,,B,, B,,z |
[V:1]c'4 |
[V:2]a4 |
[V:3]F,A, CF |
[V:4]z4 |
[V:1]f2 b2 |
[V:2]d2 _d2 |
[V:3]BA GE |
[V:4]z4 |
[V:1]ag/f/ e/d/f/d/ |
[V:2]c2 BA |
[V:3]AA, B,B, |
[V:4]z4 |
[V:1]e'4 |
[V:2]G2 B,2- |
[V:3]G,4- |
[V:4]E,,G,, B,,E, |
[V:1]_D3 C/D/ |
[V:2]B,2 B,2 |
[V:3]G,4 |
[V:4]E,,E,, E,,E,, |
[V:1]Cc'/b/ a/g/f/e/ |
[V:2]C4 |
[V:3]A,4 |
[V:4]E,,E,, E,,E,, |
[V:1]d/e/f/g/ a/b/c'/d'/ |
[V:2]A3 G/A/ |
[V:3]F3 E/F/ |
[V:4]E,,E,, E,,E,, |
[V:1]e'4 |
[V:2]G2 B,2- |
[V:3]E2 G,2- |
[V:4]E,,G,, B,,E, |
[V:1]_D3 C/D/ |
[V:2]B,2 B,2 |
[V:3]G,2 G,2 |
[V:4]E,,E,, E,,E,, |
[V:1]Cc'/b/ a/g/f/e/ |
[V:2]C4 |
[V:3]A,4 |
[V:4]E,,E,, E,,E,, |
[V:1]d/e/f/g/ a/b/c'/d'/ |
[V:2]A3 G/A/ |
[V:3]F3 E/F/ |
[V:4]E,,E,, E,,E,, |
[V:1]e'e' d'/e'/f'/d'/ |
[V:2]GB AA |
[V:3]EG FF |
[V:4]E,,2 z2 |
[V:1]e'e' d'/e'/f'/d'/ |
[V:2]GB AA |
[V:3]GG FF |
[V:4]z4 |
[V:1]e'c' =b/c'/d'/b/ |
[V:2]Gg ff |
[V:3]Ge dd |
[V:4]z4 |
[V:1]c'b =a/b/c'/a/ |
[V:2]gf ee |
[V:3]ed cc |
[V:4]z4 |
[V:1]b=a g/a/b/g/ |
[V:2]fe dd |
[V:3]dc BB |
[V:4]z4 |
[V:1]f/g/=a/f/ =e/f/g/e/ |
[V:2]cc BB |
[V:3]=AA GG |
[V:4]z4 |
[V:1]ff _gf |
[V:2]=AC _DC |
[V:3]F=A, B,A, |
[V:4]F,4- |
[V:1]_gf =e/b/=g/e/ |
[V:2]_DC B,D |
[V:3]B,=A, G,B, |
[V:4]F,4- |
[V:1]ff _gf |
[V:2]CC _DD |
[V:3]=A,A, B,A, |
[V:4]F,4- |
[V:1]_gf =e/b/=g/e/ |
[V:2]_DC B,D |
[V:3]B,=A, G,B, |
[V:4]F,4 |
[V:1]fz [F=ac]z |
[V:2]Cz [=AFC]z |
[V:3]=A,z [FA,]z |
[V:4]F,z F,z |
[V:1][F2=A2f2] z2 |
[V:2][F2=A2C2] z2 |
[V:3][F2=A,2] z2 |
[V:4]F,2 z2 |
[V:1]z2 f2- |
[V:2]z2 d2- |
[V:3]F4 |
[V:4]z4 |
[V:1]f2 d2 |
[V:2]d2 B2 |
[V:3]D2 G2 |
[V:4]z4 |
[V:1]g2 cd/e/ |
[V:2]e2 =A2 |
[V:3]CD/E/ FE |
[V:4]z4 |
[V:1]f2 a2 |
[V:2]A2 f2- |
[V:3]DE DC |
[V:4]z4 |
[V:1]g2 ag |
[V:2]f2 f2- |
[V:3]D4 |
[V:4]=B,4 |
[V:1]g4 |
[V:2]fd ee |
[V:3]=B,2 E2 |
[V:4]G,2 C2 |
[V:1]_g2 f2 |
[V:2]e4- |
[V:3]C4 |
[V:4]=A,4 |
[V:1]c'/=a/c'/a/ ff |
[V:2]e2 d2 |
[V:3]=A,2 DE/F/ |
[V:4]F,2 B,C/D/ |
[V:1]f4 |
[V:2]d4 |
[V:3]G2 A/=A/B/=B/ |
[V:4]E4- |
[V:1]e/=e/f/^f/ gg |
[V:2]G2 z2 |
[V:3]c2 z2 |
[V:4]E2 z2 |
[V:1]e/=e/f/^f/ gg |
[V:2]c2 z2 |
[V:3]G2 z2 |
[V:4]E2 z2 |
[V:1]e/=e/f/^f/ gg |
[V:2]c2 z2 |
[V:3]G2 z2 |
[V:4]E2 z2 |
[V:1]d/e/=e/f/ d/_e/=e/f/ |
[V:2]Dz Dz |
[V:3]B,z B,z |
[V:4]F,z F,z |
[V:1]d/e/=e/f/ d/_e/=e/f/ |
[V:2]Dz Dz |
[V:3]B,z B,z |
[V:4]F,z F,z |
[V:1]d/e/=e/f/ ^f/g/a/=a/ |
[V:2]DD DD |
[V:3]B,B, B,B, |
[V:4]F,F, F,F, |
[V:1]bd' f'f' |
[V:2]D2 z2 |
[V:3]B,2 z2 |
[V:4]F,2 z2 |
[V:1]c4- |
[V:2]=A4- |
[V:3]E/F/D/E/ C/D/B,/C/ |
[V:4]F,F, F,F, |
[V:1]c4 |
[V:2]A4 |
[V:3]=A,/B,/G,/A,/ F,/G,/E,/F,/ |
[V:4]F,,F,, F,,F,, |
[V:1]B2 z2 |
[V:2]BF FF |
[V:3]D,2 z2 |
[V:4]B,,2 z2 |
[V:1]z4 |
[V:2]FF FF |
[V:3]z4 |
[V:4]z4 |
[V:1]B4 |
[V:2]FF FF |
[V:3]D2 B,2 |
[V:4]z4 |
[V:1]G2 c2 |
[V:2]FF FF |
[V:3]E4 |
[V:4]z4 |
[V:1]B4 |
[V:2]FF FF |
[V:3]D2 B,2 |
[V:4]z4 |
[V:1]G2 c2 |
[V:2]FF FF |
[V:3]E4 |
[V:4]z4 |
[V:1]B4 |
[V:2]FF FF |
[V:3]D2 B,2 |
[V:4]z4 |
[V:1]=A2 e2 |
[V:2]E2 =A2 |
[V:3]C2 F2 |
[V:4]F,4 |
[V:1]d2 c2 |
[V:2]B2 G2 |
[V:3]G2 E2 |
[V:4]G,2 E,2 |
[V:1]B=A/B/ cA |
[V:2]F2 E2 |
[V:3]D2 C2 |
[V:4]F,4 |
[V:1]B2 z2 |
[V:2]Df ff |
[V:3]B,2 z2 |
[V:4]B,,2 z2 |
[V:1]z4 |
[V:2]ff ff |
[V:3]z4 |
[V:4]z4 |
[V:1]z2 d'2- |
[V:2]ff ff |
[V:3]B4 |
[V:4]D2 B,2 |
[V:1]d'e'/c'/ =af |
[V:2]ff ff |
[V:3]G2 c2 |
[V:4]E4 |
[V:1]bf d'2- |
[V:2]ff ff |
[V:3]B4 |
[V:4]D2 B,2 |
[V:1]d'e'/c'/ =af |
[V:2]ff ff |
[V:3]G2 c2 |
[V:4]E4 |
[V:1]bf d'2- |
[V:2]ff ff |
[V:3]B4- |
[V:4]D2 B,2 |
[V:1]d'e'/d'/ c'b |
[V:2]gg gg |
[V:3]B2 GE |
[V:4]E,4 |
[V:1]=a2 b2 |
[V:2]e2 d2 |
[V:3]C2 D2 |
[V:4]F,/C/F,/C/ F,/B,/F,/B,/ |
[V:1]e2 d2 |
[V:2]=A2 B2 |
[V:3]C2 DB, |
[V:4]F,/C/F,/C/ F,/B,/F,/B,/ |
[V:1]c2 z2 |
[V:2]=AC DE |
[V:3]E=A, B,C |
[V:4]=E,/F,/_E,/F,/ D,/F,/C,/F,/ |
[V:1]zc de |
[V:2]F=A Bc |
[V:3]Dz3 |
[V:4]B,,/F,/E,/F,/ D,/F,/C,/F,/ |
[V:1]fd ef |
[V:2]dB2 B |
[V:3]zF B,A, |
[V:4]=A,,/B,,/_A,,/B,,/ G,,/B,,/F,,/B,,/ |
[V:1]g^f/g/ =a/g/b/a/ |
[V:2]Bz3 |
[V:3]G,z3 |
[V:4]E,,z3 |
[V:1]c'/b/=a/g/ f/e/d/c/ |
[V:2]z4 |
[V:3]z4 |
[V:4]z4 |
[V:1]=B/c/d/c/ e/d/f/e/ |
[V:2]G2 z2 |
[V:3]E2 z2 |
[V:4]z4 |
[V:1]g/f/e/d/ c/B/A/G/ |
[V:2]z4 |
[V:3]z4 |
[V:4]z4 |
[V:1]=E/F/G/F/ D/_E/F/E/ |
[V:2]=E/F/G/F/ D/_E/F/E/ |
[V:3]=E/F/G/F/ D/_E/F/E/ |
[V:4]=E,/F,/G,/F,/ D,/_E,/F,/E,/ |
[V:1]D/F/B/B/ =E/F/_E/F/ |
[V:2]D/F/B/B/ =E/F/_E/F/ |
[V:3]D/F/B/B/ =E/F/_E/F/ |
[V:4]D,/F,/B,/B,/ =E,/F,/_E,/F,/ |
[V:1]D/F/B/B/ =E/F/_E/F/ |
[V:2]D/F/B/B/ =E/F/_E/F/ |
[V:3]D/F/B/B/ =E/F/_E/F/ |
[V:4]D,/F,/B,/B,/ =E,/F,/_E,/F,/ |
[V:1]D/F/B/B/ D/F/=B/B/ |
[V:2]Dz =Bz |
[V:3]Dz Fz |
[V:4]D,z D,z |
[V:1]E/G/c/c/ G/B/_d/d/ |
[V:2]cz _dz |
[V:3]Gz Bz |
[V:4]E,z =E,z |
[V:1]F/B/d/B/ f/d/b/f/ |
[V:2]d2 z2 |
[V:3]B2 z2 |
[V:4]F,2 z2 |
[V:1]d'z [=AE]z |
[V:2]z2 [EC]z |
[V:3]z2 Fz |
[V:4]z2 F,z |
[V:1][DB]f2 f- |
[V:2][DB,]d c=A |
[V:3]FB =AF |
[V:4]B,,z3 |
[V:1]fe2 d |
[V:2]B2 =AB |
[V:3]GC FB, |
[V:4]z4 |
[V:1]dc B=A |
[V:2]G3/F//E// DC |
[V:3]EE, F,F, |
[V:4]z4 |
[V:1]Bf2 f |
[V:2]Dd ^c=c |
[V:3]B,2 zF- |
[V:4]zB, =A,_A, |
[V:1]d'e c'd |
[V:2]=Bc =A_B |
[V:3]FE2 D |
[V:4]G,C F,B, |
[V:1]g(3f/e/d/ c//B//=A//G//F//E//D//C// |
[V:2]Gz Ez |
[V:3]Ez =A,z |
[V:4]E,z F,z |
[V:1]B,4 |
[V:2]B,4 |
[V:3]B,4 |
[V:4]B,,4 |
[V:1]A,3 G,/A,/ |
[V:2]A,3 G,/A,/ |
[V:3]A,3 G,/A,/ |
[V:4]A,,3 G,,/A,,/ |
[V:1]G,E EE |
[V:2]G,E EE |
[V:3]G,E EE |
[V:4]G,,E, E,E, |
[V:1]=A,F FF |
[V:2]=A,F FF |
[V:3]=A,F FF |
[V:4]=A,,F, F,F, |
[V:1]B,4 |
[V:2]B,4 |
[V:3]B,4 |
[V:4]B,,4 |
[V:1]=B,3 =A,/B,/ |
[V:2]=B,3 =A,/B,/ |
[V:3]=B,3 =A,/B,/ |
[V:4]=B,,3 =A,,/B,,/ |
[V:1]CA AA |
[V:2]CA AA |
[V:3]CA AA |
[V:4]C,A, A,A, |
[V:1]DB BB |
[V:2]DA AA |
[V:3]D2 z2 |
[V:4]D,2 z2 |
[V:1]z4 |
[V:2]EB BB |
[V:3]E_G GG |
[V:4]E,4 |
[V:1]zb d/e/f/d/ |
[V:2]DB BB |
[V:3]A,A AA |
[V:4]F,4 |
[V:1]ee ez |
[V:2]EB BB |
[V:3]_GE EE |
[V:4]_G,4 |
[V:1]zb f/_g/a/f/ |
[V:2]B,B BB |
[V:3]A,A AA |
[V:4]D,4 |
[V:1]_gg gz |
[V:2]EB BB |
[V:3]B,_G GG |
[V:4]E,4 |
[V:1]zb d/e/f/d/ |
[V:2]DB BB |
[V:3]A,A AA |
[V:4]F,4 |
[V:1]eb e/f/_g/e/ |
[V:2]EB BB |
[V:3]_GE EE |
[V:4]_G,4 |
[V:1]fb f/_g/a/f/ |
[V:2]B,B BB |
[V:3]A,A AA |
[V:4]D,4 |
[V:1]_gg gz |
[V:2]BB BB |
[V:3]EE EE |
[V:4]E,2 z2 |
[V:1]ee ez |
[V:2]_GG GG |
[V:3]EE EE |
[V:4]z4 |
[V:1]BB Bz |
[V:2]_GG GG |
[V:3]EE EE |
[V:4]z4 |
[V:1]_GG Gz |
[V:2]_GG GG |
[V:3]EE EE |
[V:4]z4 |
[V:1]z4 |
[V:2]z4 |
[V:3]z4 |
[V:4]B,,B,, B,,B,, |
[V:1]EE EE |
[V:2]z4 |
[V:3]^FF FF |
[V:4]z4 |
[V:1]z4 |
[V:2]z4 |
[V:3]z4 |
[V:4]=B,,B,, B,,B,, |
[V:1]^FF FF |
[V:2]DD DD |
[V:3]z4 |
[V:4]z4 |
[V:1]^F2 z2 |
[V:2]^FF FF |
[V:3]DD DD |
[V:4]=B,B, B,B, |
[V:1]z^f ^A/=B/^c/A/ |
[V:2]^FF FF |
[V:3]=EE EE |
[V:4]^C4 |
[V:1]=BB Bz |
[V:2]=B,^F FF |
[V:3]D=B, B,B, |
[V:4]D4 |
[V:1]z^f ^c/d/=e/c/ |
[V:2]^C^F FF |
[V:3]=E,=E EE |
[V:4]^A,4 |
[V:1]dd dz |
[V:2]D^F FF |
[V:3]^F,D DD |
[V:4]=B,4 |
[V:1]z^f ^A/=B/^c/A/ |
[V:2]^A,^F FF |
[V:3]=E,=E EE |
[V:4]^C4 |
[V:1]=B^f B/^c/d/B/ |
[V:2]=B^F FF |
[V:3]^F,=B, B,B, |
[V:4]D4 |
[V:1]^c^f c/d/=e/c/ |
[V:2]=E^F FF |
[V:3]^F,=E EE |
[V:4]^A,4 |
[V:1]d4 |
[V:2]D^F FF |
[V:3]^F,D DD |
[V:4]=B,B, B,B, |
[V:1]^f3 =e/f/ |
[V:2]Dc =Ad |
[V:3]CC CC |
[V:4][D,=A,][A,D,] [D,A,][D,A,] |
[V:1]gg gz |
[V:2]DB BB |
[V:3]B,D DD |
[V:4]G,G, G,G, |
[V:1]zd' =a/b/c'/a/ |
[V:2]D=A ^F/G/A/F/ |
[V:3]Dd dd |
[V:4]^F,2 z2 |
[V:1]bb _g/=g/=a/_g/ |
[V:2]Gd =A/B/c/A/ |
[V:3]d4 |
[V:4]z4 |
[V:1]g2 z2 |
[V:2]Bd dd |
[V:3]dd =A/B/c/A/ |
[V:4]zB, ^F,/G,/=A,/F,/ |
[V:1]zd' =a/b/c'/a/ |
[V:2]d4 |
[V:3]BB ^F/G/=A/F/ |
[V:4]G,2 z2 |
[V:1]b4 |
[V:2]d4 |
[V:3]G,G GG |
[V:4]z4 |
[V:1]=b3 =a/b/ |
[V:2][d4G4] |
[V:3]F,F FF |
[V:4]zA, D,/E,/F,/D,/ |
[V:1]c'g d/e/f/d/ |
[V:2][c2E2] z2 |
[V:3]Ge =B/c/d/B/ |
[V:4]E,2 z2 |
[V:1]e2 z2 |
[V:2]ze =B/c/d/B/ |
[V:3]cG D/E/F/D/ |
[V:4]z4 |
[V:1]zg' d'/e'/f'/d'/ |
[V:2]cg gg |
[V:3]EE F/E/D/F/ |
[V:4]zE, =B,,/C,/D,/B,,/ |
[V:1]e'e' e'z |
[V:2]ge ee |
[V:3]Ec cc |
[V:4]C,2 z2 |
[V:1]c'c' c'z |
[V:2]ee ee |
[V:3]cc cc |
[V:4]z4 |
[V:1]gg gz |
[V:2]ee ee |
[V:3]cc cc |
[V:4]z4 |
[V:1]ee ee |
[V:2]ee ee |
[V:3]cc cc |
[V:4]z4 |
[V:1]e4 |
[V:2]c4 |
[V:3]A4- |
[V:4]A,,C, E,A, |
[V:1]c2 f2 |
[V:2]A4 |
[V:3]AF DB, |
[V:4]CF DB, |
[V:1]Be d/e/f/d/ |
[V:2]GG AA |
[V:3]EE FF |
[V:4]EE B,B, |
[V:1]ee ez |
[V:2]GG Gz |
[V:3]GG Gz |
[V:4]E,E, E,z |
[V:1]BB Bz |
[V:2]B,B, B,z |
[V:3]B,B, B,z |
[V:4]B,,B,, B,,z |
[V:1]EE Ez |
[V:2]EE Ez |
[V:3]E,E, E,z |
[V:4]E,,E,, E,,z |
[V:1]f4 |
[V:2]_d4 |
[V:3]B,4 |
[V:4]B,,_D, F,B, |
[V:1]B2 e2 |
[V:2]G2 _G2 |
[V:3]E_D CC |
[V:4]E_D CA, |
[V:1]_dc/B/ A/G/B/G/ |
[V:2]F2 E_D |
[V:3]_D2 C/B,/D/B,/ |
[V:4]_D_D, E,E, |
[V:1]A/E/D/E/ D/E/_D/E/ |
[V:2]C2 zB, |
[V:3]A,2 z[G,E] |
[V:4]A,,2 zE, |
[V:1]C/E/A/E/ C/E/B,/E/ |
[V:2]C2 z_D |
[V:3][E2A,2] z[EG,] |
[V:4]A,2 zE, |
[V:1]C/E/A/E/ C/E/B,/E/ |
[V:2]C2 z_D |
[V:3][E2A,2] z[EG,] |
[V:4]A,2 zE, |
[V:1]C/E/A/A/ C/E/=A/A/ |
[V:2]C2 =A,/C/E/E/ |
[V:3]E3 C |
[V:4]A,,2 F,2 |
[V:1]B/F/=E/F/ E/F/_E/F/ |
[V:2]D2 zC |
[V:3]B,2 z=A, |
[V:4]B,,2 zF, |
[V:1]D/F/B/F/ D/F/C/F/ |
[V:2]D2 zE |
[V:3]B,2 z=A, |
[V:4]B,2 zF, |
[V:1]D/F/B/F/ D/F/C/F/ |
[V:2]D2 zE |
[V:3]B,2 z=A, |
[V:4]B,2 zF, |
[V:1]D/F/B/B/ D/F/=B/B/ |
[V:2]D2 =B,/D/F/F/ |
[V:3]B,F2 D |
[V:4]B,,2 G,2 |
[V:1]c/G/^F/G/ F/G/=F/G/ |
[V:2]E2 zD |
[V:3]E2 z=B, |
[V:4]C,2 zG, |
[V:1]E/G/c/G/ ^F/G/=F/G/ |
[V:2]E2 zD |
[V:3]C2 z=B, |
[V:4]C2 zG, |
[V:1]E/e/d/c/ =B/c/B/c/ |
[V:2]E4 |
[V:3]CG2 G |
[V:4]C4 |
[V:1]^F/e/d/c/ =B/c/B/c/ |
[V:2]^F4 |
[V:3]cE DC |
[V:4]A,,4 |
[V:1]=Bg gg |
[V:2]G2 z2 |
[V:3]D2 z2 |
[V:4]G,,2 z2 |
[V:1]gg gg |
[V:2]z4 |
[V:3]z4 |
[V:4]z4 |
[V:1]g4 |
[V:2]e4 |
[V:3]z4 |
[V:4]C,E, G,C |
[V:1]e2 z2 |
[V:2]c2 z2 |
[V:3]z^F/G/ F/G/F/G/ |
[V:4]E2 z2 |
[V:1]a4 |
[V:2]f4 |
[V:3]G,2 z2 |
[V:4]=B,,D, F,=B, |
[V:1]f2 z2 |
[V:2]d2 z2 |
[V:3]z^F/G/ F/G/F/G/ |
[V:4]D2 z2 |
[V:1]g4 |
[V:2]e4 |
[V:3]G,2 z2 |
[V:4]C,E, G,C |
[V:1]e2 z2 |
[V:2]c2 z2 |
[V:3]z^F/G/ F/G/F/G/ |
[V:4]E2 z2 |
[V:1]a4 |
[V:2]f4 |
[V:3]G,2 z2 |
[V:4]=B,,D, F,=B, |
[V:1]f2 z2 |
[V:2]d2 z2 |
[V:3]z4 |
[V:4]D2 z2 |
[V:1]a4 |
[V:2]f4 |
[V:3]z4 |
[V:4]B,,D, F,B, |
[V:1]f2 z2 |
[V:2]d2 z2 |
[V:3]z4 |
[V:4]D2 z2 |
[V:1]b4 |
[V:2]g4 |
[V:3]E,4 |
[V:4]E,,G,, B,,E, |
[V:1]g2 c'2 |
[V:2]e4 |
[V:3]EG F=A |
[V:4]G,C =A,F, |
[V:1]fb =a/b/c'/a/ |
[V:2]dd ee |
[V:3]Bd c/B/=A/c/ |
[V:4]B,B, F,F, |
[V:1]bb bz |
[V:2]dd dz |
[V:3]BB Bz |
[V:4]B,B, B,z |
[V:1]FF Fz |
[V:2]FF Fz |
[V:3]FF Fz |
[V:4]F,F, F,z |
[V:1]B,B, B,z |
[V:2]B,B, B,z |
[V:3]B,B, B,z |
[V:4]B,,B,, B,,z |
[V:1]c'4 |
[V:2]a4 |
[V:3]F4- |
[V:4]F,,A,, C,F, |
[V:1]f2 b2 |
[V:2]d2 _d2 |
[V:3]FB, EG |
[V:4]B,A, G,E, |
[V:1]ag/f/ e/d/f/d/ |
[V:2]c2 BA |
[V:3]A2 G/F/A/F/ |
[V:4]A,A,, B,,B,, |
[V:1]e'4 |
[V:2]G2 B,2- |
[V:3]E2 G,2- |
[V:4]E,,G,, B,,E, |
[V:1]_D3 C/D/ |
[V:2]B,2 B,2 |
[V:3]G,2 G,2 |
[V:4]E,,E,, E,,E,, |
[V:1]Cc'/b/ a/g/f/e/ |
[V:2]C4 |
[V:3]A,4 |
[V:4]E,,E,, E,,E,, |
[V:1]d/e/f/g/ a/b/c'/d'/ |
[V:2]A3 G/A/ |
[V:3]F3 E/F/ |
[V:4]E,,E,, E,,E,, |
[V:1]e'4 |
[V:2]G2 B,2- |
[V:3]E2 G,2- |
[V:4]E,,G,, B,,E, |
[V:1]_D3 C/D/ |
[V:2]B,2 B,2 |
[V:3]G,2 G,2 |
[V:4]E,,E,, E,,E,, |
[V:1]Cc'/b/ a/g/f/e/ |
[V:2]C4 |
[V:3]A,4 |
[V:4]E,,E,, E,,E,, |
[V:1]d/e/f/g/ a/b/c'/d'/ |
[V:2]A3 G/A/ |
[V:3]F3 E/F/ |
[V:4]E,,E,, E,,E,, |
[V:1]e'e' d'/e'/f'/d'/ |
[V:2]GB AA |
[V:3]EG FF |
[V:4]E,,2 z2 |
[V:1]e'c' =b/c'/d'/b/ |
[V:2]Gg ff |
[V:3]Ge dd |
[V:4]z4 |
[V:1]c'a g/a/b/g/ |
[V:2]ge _dd |
[V:3]ec BB |
[V:4]z4 |
[V:1]ag f/g/e/f/ |
[V:2]c_d cB |
[V:3]cB AG |
[V:4]z4 |
[V:1]d/e/c/d/ B/c/=A/c/ |
[V:2]AG FE |
[V:3]FE DC |
[V:4]z4 |
[V:1]b4 |
[V:2]D2 e2- |
[V:3]D2 G2- |
[V:4]B,,4- |
[V:1]g2 c'2- |
[V:2]e2 c2 |
[V:3]G2 E2 |
[V:4]B,,4- |
[V:1]c'2 af |
[V:2]f4 |
[V:3]A4 |
[V:4]B,,4- |
[V:1]b2 ge |
[V:2]dB e2 |
[V:3]FD G2 |
[V:4]B,,4- |
[V:1]=a3 c' |
[V:2]ce _g2- |
[V:3]EC E2- |
[V:4]B,,4- |
[V:1]e'=a aa |
[V:2]g_g fe |
[V:3]EE F_G |
[V:4]B,,4- |
[V:1]ba/b/ c'b |
[V:2]df/g/ ag |
[V:3]F2 z2 |
[V:4]B,,2 z2 |
[V:1]ag fe |
[V:2]fe dc |
[V:3]z4 |
[V:4]z4 |
[V:1]df/g/ ag |
[V:2]Bd/e/ fe |
[V:3]z4 |
[V:4]z4 |
[V:1]fe dc |
[V:2]dc BA |
[V:3]z4 |
[V:4]z4 |
[V:1]B3 c/_d/ |
[V:2]G4- |
[V:3]E4 |
[V:4]_D4 |
[V:1]eG AA |
[V:2]GE Az |
[V:3]_D2 C2 |
[V:4]B,2 E2 |
[V:1]F3 A/B/ |
[V:2]D4 |
[V:3]B,4 |
[V:4]A,4 |
[V:1]cB BA |
[V:2]A3 F |
[V:3]D,2 D2 |
[V:4]F,2 B,2 |
[V:1]AG AF |
[V:2]E2 C2 |
[V:3]E2 A,2 |
[V:4]C2 A,,2 |
[V:1]FE ED |
[V:2]B,2 A,2 |
[V:3]G,2 F,2 |
[V:4]B,,4 |
[V:1]B3 c/_d/ |
[V:2]G4- |
[V:3]E,4 |
[V:4]_D,4 |
[V:1]eG AA |
[V:2]GE Az |
[V:3]_D,2 C,2 |
[V:4]B,,2 E,2 |
[V:1]F3 A/B/ |
[V:2]D4 |
[V:3]B,4 |
[V:4]A,,4 |
[V:1]cB BA |
[V:2]A3 F |
[V:3]D,2 D2 |
[V:4]F,,2 B,,2 |
[V:1]AG AF |
[V:2]E2 C2 |
[V:3]E2 A,2 |
[V:4]C,2 A,,2 |
[V:1]FE ED |
[V:2]B,2 A,2 |
[V:3]G,2 F,2 |
[V:4]B,,4 |
[V:1]E2 z2 |
[V:2]G,B BB |
[V:3]E,2 z2 |
[V:4]E,,2 z2 |
[V:1]z4 |
[V:2]BB BB |
[V:3]z4 |
[V:4]z4 |
[V:1]e4 |
[V:2]BB BB |
[V:3]G2 E2 |
[V:4]z4 |
[V:1]c2 f2 |
[V:2]BB BB |
[V:3]A4 |
[V:4]z4 |
[V:1]e4 |
[V:2]BB BB |
[V:3]G2 E2 |
[V:4]z4 |
[V:1]c2 f2 |
[V:2]BB BB |
[V:3]A4 |
[V:4]z4 |
[V:1]e4 |
[V:2]BB BB |
[V:3]G2 E2 |
[V:4]z4 |
[V:1]d2 a2 |
[V:2]A2 D2 |
[V:3]F2 B2 |
[V:4]B,4 |
[V:1]g2 f2 |
[V:2]E2 c2 |
[V:3]c2 A2 |
[V:4]C2 A,2 |
[V:1]ed/e/ fd |
[V:2]B2 A2 |
[V:3]G2 F2 |
[V:4]B,4 |
[V:1]e2 z2 |
[V:2]G2 z2 |
[V:3]EB BB |
[V:4]E,2 z2 |
[V:1]z4 |
[V:2]z4 |
[V:3]BB BB |
[V:4]z4 |
[V:1]z2 g2- |
[V:2]E4 |
[V:3]BB BB |
[V:4]G,2 E,2 |
[V:1]ga/f/ dB |
[V:2]C2 F2 |
[V:3]BB BB |
[V:4]A,4 |
[V:1]eB g2- |
[V:2]E4 |
[V:3]BB BB |
[V:4]G,2 E,2 |
[V:1]ga/f/ dB |
[V:2]C2 F2 |
[V:3]BB BB |
[V:4]A,4 |
[V:1]eB g2- |
[V:2]E4- |
[V:3]BB BB |
[V:4]G,2 E,2 |
[V:1]ga/g/ fe |
[V:2]E2 cA |
[V:3]cc cc |
[V:4]A,,4 |
[V:1]d2 e2 |
[V:2]F2 G2 |
[V:3]A2 G2 |
[V:4]B,,/F,/B,,/F,/ B,,/E,/B,,/E,/ |
[V:1]A2 G2 |
[V:2]D2 E2 |
[V:3]F2 GE |
[V:4]B,,/F,/B,,/F,/ B,,/E,/B,,/E,/ |
[V:1]F2 z2 |
[V:2]DF GA |
[V:3]B,D EF |
[V:4]=A,,/B,,/_A,,/B,,/ G,,/B,,/F,,/B,,/ |
[V:1]zF GA |
[V:2]BD EF |
[V:3]Gz3 |
[V:4]E,,/B,,/A,,/B,,/ G,,/B,,/F,,/B,,/ |
[V:1]BG AB |
[V:2]GB c_d |
[V:3]z_D/E/ C/E/B,/E/ |
[V:4]E,,2 z2 |
[V:1]cc de |
[V:2]e=A Bc |
[V:3]A,E/F/ D/F/C/F/ |
[V:4]z4 |
[V:1]fd ef |
[V:2]d=B cd |
[V:3]B,F/G/ E/G/D/G/ |
[V:4]z4 |
[V:1]g=e fg |
[V:2]e/c/B/c/ A/c/G/c/ |
[V:3]C2 z2 |
[V:4]z4 |
[V:1]a/b/c'/b/ a/g/f/e/ |
[V:2]FA ce |
[V:3]z4 |
[V:4]zF, A,=A, |
[V:1]db c'd' |
[V:2]d/B/=A/B/ _A/B/F/B/ |
[V:3]zD EF |
[V:4]B,4- |
[V:1]e'/b/e'/b/ e'/b/g/e/ |
[V:2]E4 |
[V:3]G4 |
[V:4]B,4- |
[V:1]b/b/=a/b/ _a/b/f/b/ |
[V:2]DB cd |
[V:3]FD EF |
[V:4]B,4- |
[V:1]g/b/c'/b/ e'/b/g/e/ |
[V:2]e4 |
[V:3]G4 |
[V:4]B,4- |
[V:1]dB/=A/ B/c/d/e/ |
[V:2]d2 z2 |
[V:3]F2 z2 |
[V:4]B,2 z2 |
[V:1]f/e/d/c/ d/e/f/g/ |
[V:2]d2 z2 |
[V:3]F2 z2 |
[V:4]B,2 z2 |
[V:1]a/f/d/B/ A/F/D/B,/ |
[V:2][A,4-D4] |
[V:3]F,4- |
[V:4]B,,4- |
[V:1]=A,/B,/A,/B,/ A,/B,/_A,/B,/ |
[V:2][A,4D4] |
[V:3]F,4 |
[V:4]B,,4 |
[V:1]G,/B,/E/E/ =A,/B,/_A,/B,/ |
[V:2]G,/B,/E/E/ =A,/B,/_A,/B,/ |
[V:3]G,/B,/E/E/ =A,/B,/_A,/B,/ |
[V:4]G,,/B,,/E,/E,/ =A,,/B,,/_A,,/B,,/ |
[V:1]G,/B,/E/E/ =A,/B,/_A,/B,/ |
[V:2]G,/B,/E/E/ =A,/B,/_A,/B,/ |
[V:3]G,/B,/E/E/ =A,/B,/_A,/B,/ |
[V:4]G,,/B,,/E,/E,/ =A,,/B,,/_A,,/B,,/ |
[V:1]G,/B,/E/E/ A,/C/F/F/ |
[V:2]G,z Fz |
[V:3]G,z Cz |
[V:4]G,,z A,,z |
[V:1]B,/D/G/G/ C/E/A/A/ |
[V:2]Gz Az |
[V:3]Dz Ez |
[V:4]B,,z C,z |
[V:1]D/F/G/A/ B/c/d/e/ |
[V:2][B,4-A4] |
[V:3]F4- |
[V:4]D,4- |
[V:1]f/g/a/b/ c'c' |
[V:2][B,4A4] |
[V:3]F4 |
[V:4]D,4 |
[V:1]be' za |
[V:2]G2 zf |
[V:3]G2 zc |
[V:4]E,z A,z |
[V:1]zg zf |
[V:2]ze zd |
[V:3]zB zA |
[V:4]B,z B,,z |
[V:1]eb2 b- |
[V:2]eg fd |
[V:3]Ge dB |
[V:4]E,2 z2 |
[V:1]ba2 g |
[V:2]e2 de |
[V:3]cF BE |
[V:4]z4 |
[V:1]gf ed |
[V:2]c3/B//A// GF |
[V:3]AA, B,B, |
[V:4]z4 |
[V:1]eb2 b |
[V:2]Gg ^f=f |
[V:3]E2 zB- |
[V:4]zE, D,_D, |
[V:1]g'a f'g |
[V:2]=ef d_e |
[V:3]BA2 G |
[V:4]C,F, B,,E, |
[V:1]c'(3b/a/g/ f//e//d//c//B//A//G//F// |
[V:2]cz Az |
[V:3]Az Dz |
[V:4]A,,z B,,z |
[V:1]E4 |
[V:2]E4 |
[V:3]E,4 |
[V:4]E,4 |
[V:1]_D3 C/D/ |
[V:2]_D3 C/D/ |
[V:3]_D,3 C,/D,/ |
[V:4]_D,3 C,/D,/ |
[V:1]CA AA |
[V:2]CA AA |
[V:3]C,A, A,A, |
[V:4]C,A, A,A, |
[V:1]DB BB |
[V:2]DB BB |
[V:3]D,B, B,B, |
[V:4]D,B, B,B, |
[V:1]E4 |
[V:2]E4 |
[V:3]E,4 |
[V:4]E,4 |
[V:1]=E3 D/E/ |
[V:2]=E3 D/E/ |
[V:3]=E,3 D,/E,/ |
[V:4]=E,3 D,/E,/ |
[V:1]FA AA |
[V:2]FA AA |
[V:3]F,A, A,A, |
[V:4]F,A, A,A, |
[V:1]_CA AA |
[V:2]_CA AA |
[V:3]_CA, A,A, |
[V:4]_C,A, A,A, |
[V:1]B,A AA |
[V:2]B,A AA |
[V:3]B,A AA |
[V:4]B,,A, A,A, |
[V:1]DA AA |
[V:2]DA AA |
[V:3]DA AA |
[V:4]D,A, A,A, |
[V:1]FA AA |
[V:2]FA AA |
[V:3]FA AA |
[V:4]F,A, A,A, |
[V:1]DB BB |
[V:2]DA AA |
[V:3]D2 z2 |
[V:4]D,2 z2 |
[V:1]FB BB |
[V:2]FA AA |
[V:3]z4 |
[V:4]z4 |
[V:1]D_c cc |
[V:2]DA AA |
[V:3]z4 |
[V:4]z4 |
[V:1]zf ff |
[V:2]_c4- |
[V:3]A4- |
[V:4]D4 |
[V:1]z_g gg |
[V:2]c4- |
[V:3]A4- |
[V:4]E4 |
[V:1]zf ff |
[V:2]c4- |
[V:3]A4- |
[V:4]F4 |
[V:1]ze ee |
[V:2]c4- |
[V:3]A4- |
[V:4]_G4 |
[V:1]zd dd |
[V:2]c4- |
[V:3]A4- |
[V:4]F4 |
[V:1]z_g gg |
[V:2]c4- |
[V:3]A4- |
[V:4]E4 |
[V:1]zf ff |
[V:2]c4- |
[V:3]A4- |
[V:4]D4 |
[V:1]ze ee |
[V:2]c4- |
[V:3]A4- |
[V:4]_G4 |
[V:1]zd dd |
[V:2]c4- |
[V:3]A4- |
[V:4]F4- |
[V:1]_c'd dd |
[V:2]c4 |
[V:3]A4 |
[V:4]F4 |
[V:1]e2 g2- |
[V:2]BB BB |
[V:3]G2 E2 |
[V:4]G2 z2 |
[V:1]ga/f/ dB |
[V:2]BB BB |
[V:3]A4 |
[V:4]zD, F,A, |
[V:1]eB g2- |
[V:2]BB BB |
[V:3]G2 E2 |
[V:4]zG, B,E |
[V:1]ga/f/ dB |
[V:2]BB BB |
[V:3]A4 |
[V:4]zD, F,A, |
[V:1]eb/g/ ee' |
[V:2]E4 |
[V:3]GE B,G, |
[V:4]G,4 |
[V:1]zc'/a/ fc |
[V:2]F4 |
[V:3]CF Ac |
[V:4]A,4 |
[V:1]zb/g/ eB |
[V:2]G4 |
[V:3]E4 |
[V:4]B,4 |
[V:1]za/f/ dB |
[V:2]A4 |
[V:3]D4 |
[V:4]B,,4 |
[V:1]b4 |
[V:2]g4 |
[V:3]zB,/E/ GB |
[V:4]zG,,/B,,/ E,G, |
[V:1]a4 |
[V:2]f4 |
[V:3]zC/F/ Ac |
[V:4]zA,,/C,/ F,A, |
[V:1]g4 |
[V:2]e4 |
[V:3]zG,/B,/ EG |
[V:4]zB,,/E,/ G,B, |
[V:1]f4 |
[V:2]d4 |
[V:3]zA,/F/ AA, |
[V:4]zB,,/D,/ F,B, |
[V:1]eb d/e/f/d/ |
[V:2]ez [AB,]z |
[V:3]G,G F/E/D/F/ |
[V:4]E,z B,,z |
[V:1]eb d/e/f/d/ |
[V:2][GB,]z [AB,]z |
[V:3]EG F/E/D/F/ |
[V:4]E,z B,,z |
[V:1]e2 [B2g2E2] |
[V:2][G2B,2] [G,2E2] |
[V:3]E2 E2 |
[V:4]E,2 E,,2 |
[V:1][E2G,2] z2 |]
[V:2][G,2E2] z2 |]
[V:3]E,2 z2 |]
[V:4]E,,2 z2 |]

